X:938
T:Cape Breton Symphony's Welcome to Shetland, The
O:england
M:4/4
L:1/8
C:Willie Hunter
R:Reel
K:A
AF|"A"EC C/C/C C2 B,C|"A"A,B,CE "F#m"FECE|"Bm"FB B/B/B BcBA|"Bm"Bffe "E7
"f2 fg|"A"ac c/c/c eA A/A/A|"A"cBAF EC C/C/C|"D"FAAF "Bm"Eaaf|"E7"ecBc
